X:12011
T:Lambs Fold Vale, The
T:Pant Corlan Yr Wyn
T:Let Now the Harp
R:Polka
C:Trad.
O:Wales
Z:Paul Hardy's Session Tunebook 2022 (see www.paulhardy.net). Creative Commons cc by-nc-sa licenced.
M:2/2
L:1/8
Q:1/2=80
K:G
BA|"G"G2GA B2G2|"D7"c2AB c2A2|"G"B2G2 GABc|"D7"d2A2 F2D2|
"G"G2GA B2G2|"C"c2cB "Am"A2c2|"G"B2G2 "D7"FGAF|"G"G2G2 G2:|
|:dc|"G"B2d2 d2cB|"D7"A2c2 c2BA|"Em"G2B2 "A7"B2AG|"D"F2A2 "D7"F2D2|"G"G2GA B2G2|"D7"c2AB c2A2|
"G"B2G2 GABc|"D7"d2A2 F2D2|"G"G2GA B2G2|"C"c2cB "Am"A2c2|"G"B2G2 "D7"FGAF|"G"G2G2 G2:|

